X: 33021
T: Price Of My Pig, The
R: jig
M: 6/8
K: Adorian
|:E2A AGA|~B3 GAB|cBA BAG|AGE DGF|
E2A AGA|~B3 GAB|c2B BAG|1 ABA AGF:|2 ~A3 AB/^c/d||
|:e2g d2e|cBA B2d|cBA BAG|AGE DGF|
E2A AGA|~B3 GAB|c2B BAG|1 ~A3 AB/^c/d:|2 ABA AGF||

